material/.icons/material/file-sync-outline.svg

<svg xmlns="http://www.w3.org/2000/svg" viewBox="0 0 24 24"><path d="M12.8 22H6c-1.1 0-2-.9-2-2V4c0-1.1.9-2 2-2h8l6 6v3.5c-.6-.3-1.3-.4-2-.5V9h-5V4H6v16h5.5c.3.7.8 1.4 1.3 2M17 12l-2.2 2.2 2.2 2.2V15c1.4 0 2.5 1.1 2.5 2.5 0 .4-.1.8-.3 1.1l1.1 1.1c.4-.6.7-1.4.7-2.2 0-2.2-1.8-4-4-4V12m2.2 8.8L17 18.5V20c-1.4 0-2.5-1.1-2.5-2.5 0-.4.1-.8.3-1.1l-1.1-1.1c-.4.6-.7 1.4-.7 2.2 0 2.2 1.8 4 4 4V23l2.2-2.2z"/></svg>

<?xml version="1.0" encoding="UTF-8"?><!DOCTYPE svg PUBLIC "-//W3C//DTD SVG 1.1//EN" "http://www.w3.org/Graphics/SVG/1.1/DTD/svg11.dtd"><svg xmlns="http://www.w3.org/2000/svg" xmlns:xlink="http://www.w3.org/1999/xlink" version="1.1" id="mdi-file-sync-outline" width="24" height="24" viewBox="0 0 24 24"><path d="M12.8 22H6C4.9 22 4 21.1 4 20V4C4 2.9 4.9 2 6 2H14L20 8V11.5C19.4 11.2 18.7 11.1 18 11V9H13V4H6V20H11.5C11.8 20.7 12.3 21.4 12.8 22M17 12L14.8 14.2L17 16.4V15C18.4 15 19.5 16.1 19.5 17.5C19.5 17.9 19.4 18.3 19.2 18.6L20.3 19.7C20.7 19.1 21 18.3 21 17.5C21 15.3 19.2 13.5 17 13.5V12M19.2 20.8L17 18.5V20C15.6 20 14.5 18.9 14.5 17.5C14.5 17.1 14.6 16.7 14.8 16.4L13.7 15.3C13.3 15.9 13 16.7 13 17.5C13 19.7 14.8 21.5 17 21.5V23L19.2 20.8Z" /></svg>
